X: 031
T: Admiral McBride's Hornpipe
C: by William Campbell
O: 1795
%R: hornpipe, reel
Z: 2018 John Chambers <jc:trillian.mit.edu>
B: Wm. Campbell "10th Book of New and Favorite Country Dances, Strathey Reels" 1795 p.3
F: https://archive.org/details/campbellstenthbo00camp
N: Several missing flags added to match the dotted notes.
M: C|
L: 1/8
K: Eb
% - - - - - - - - - - - - - - - - - - - - - - - - -
% Voice 1 arranged for small-scale proofreading
V: 1 staves=2
|:\
E>ed>c B<G (AG/F/) | G>EC>F (ED)CB, | G,>EB,>E A,>ECE | F<ACF (ED)CB, | E<ed>c B>AG>F |
G>EC>F EDCB, | G,B,EB, A,CFA | G>ED>F [E4G,4] :: F<BdB fBdB | c>de>c B=AGF | D<FBF EGce |
d<TBGc (B=A).G.F | F<BdB .f.B.d.B | c>de>c (B=A).G.F | G<eFd EcDB | FB=Ac "_Da Capo"B4 |]
% - - - - - - - - - - - - - - - - - - - - - - - - -
% Voice 1 preserves the original staff layout
V: 2 clef=bass middle=d
|:\
e2e2 d2B2 | e2=A2 B4 | e2e2 A2A2 | A2A2 B2z2 | e2z2 d2B2 |
e2=A2 B4 | e2G2 A2a2 | b2B2 e4 :: d2f2 d2B2 | e2e2 f2f2 | B2d2 e2z2 |
d2=e2 f2z2 | d2f2 d2B2 | e2e2 f4 | B2B2 =a2b2 | f2F2 B4 |]
% - - - - - - - - - - - - - - - - - - - - - - - - -
%%begintext align
%% The 1st Lady sets to the 2d Gent & turn at the same time the 1st
%% Gent sets to the 2d Lady & turn :|. the 1st Lady set to the 3d
%% Gent & turn Lead up to the top & foot it & cast off .|: hands 4
%% round & back again Right & Left at top :|:
%%endtext
% - - - - - - - - - - - - - - - - - - - - - - - - -

%%sep 1 1 500
%%sep 1 1 500

